X: 100118
M: C|
L: 1/8
K: E
ue !segno!|\
[1 (e/f/g) (f/g/a) geec !segno!:|[2 (e/f/g) (f/g/a) gee |]
ua | gebe gbeg | fB (g/f/e) (de)fa | gebe gbeg | (f{gf}e) (Ba) gee |]
 a | gebe gbeg | fB (g/f/e) (de)fa | gece f=dBd | cAFA | GEE "^D.C."|]


